setcps(1)

d1 $ slow 1 $ jux rev $ chop 16 $ sound "breaks125" #gain 0.8

r5 $ slow 1 $ jux rev $ chop 16 $ sound "raiv" #gain 0.8

d1 silence

d2 $ s "bd*4"

d3 $ s "[~ hh]*4"

d4 $ s "bass3:2(3,8)" #note "a4 c4 e4 f4"




hush
