setcps(1)

d1 $ slow 1 $ jux rev $ chop 16 $ sound "breaks125" #gain 0.8

d1 silence

d2 $ s "bd*4" #dry 1 #gain 1.2

d2 $ s "~ bd ~ bd"

d3 $ s "[~ hh]*4" #speed 2 #room 1 #size 0.9

d4 $ s "bass3:2(3,8)" #note "a4 c5 e5 f4 a5 c4 d4 f4" #room 2 #size 0.7 

d4 silence

d1 $ n "<[a5,cs5,e5,g5]*4 [d5,fs5,g5,c5]>" # s "hh" #room 1


hush